frontend/src/assets/apply/priority-apps.svg

<svg width="136" height="136" viewBox="0 0 136 136" fill="none" xmlns="http://www.w3.org/2000/svg">
<g filter="url(#filter0_d)">
<rect x="4" y="4" width="128" height="128" rx="15" fill="white"/>
</g>
<path d="M4 19C4 10.7157 10.7157 4 19 4H117C125.284 4 132 10.7157 132 19V40H4V19Z" fill="#F44343"/>
<path d="M50.6802 28H53.7555V21.9915H59.6717V19.456H53.7555V15.9901H60.3109V13.4545H50.6802V28ZM62.3794 28H72.209V25.4645H65.4547V21.9915H71.6763V19.456H65.4547V15.9901H72.1806V13.4545H62.3794V28ZM74.6255 28H80.84C84.1071 28 85.8471 26.2955 85.8471 23.9801C85.8471 21.8281 84.3059 20.5284 82.6511 20.4503V20.3082C84.1639 19.9673 85.2789 18.8949 85.2789 17.1832C85.2789 15.0028 83.6596 13.4545 80.4494 13.4545H74.6255V28ZM77.7008 25.4858V21.6222H80.2789C81.7562 21.6222 82.6724 22.4744 82.6724 23.6747C82.6724 24.7685 81.9267 25.4858 80.2079 25.4858H77.7008ZM77.7008 19.5412V15.9403H80.0375C81.4011 15.9403 82.1752 16.6435 82.1752 17.6946C82.1752 18.8452 81.2377 19.5412 79.9806 19.5412H77.7008Z" fill="white"/>
<path d="M61.189 97.344C63.749 97.344 65.029 98.432 65.029 100.608C65.029 102.869 63.749 104 61.189 104H39.557C36.9543 104 35.653 102.869 35.653 100.608C35.653 98.432 36.9543 97.344 39.557 97.344H46.213V68.16L40.069 71.936C39.4717 72.2773 38.9383 72.448 38.469 72.448C37.573 72.448 36.805 72.064 36.165 71.296C35.5677 70.528 35.269 69.6747 35.269 68.736C35.269 67.4987 35.8237 66.5387 36.933 65.856L46.853 59.712C48.133 58.944 49.349 58.56 50.501 58.56C51.6957 58.56 52.6557 58.9227 53.381 59.648C54.1063 60.3733 54.469 61.376 54.469 62.656V97.344H61.189ZM85.228 58.304C90.9453 58.304 95.34 60.2453 98.412 64.128C101.527 67.968 103.084 73.472 103.084 80.64C103.084 85.5467 102.359 89.8133 100.908 93.44C99.4573 97.024 97.3667 99.776 94.636 101.696C91.948 103.616 88.7693 104.576 85.1 104.576C82.668 104.576 80.2147 104.149 77.74 103.296C75.308 102.4 73.2387 101.205 71.532 99.712C70.9773 99.2427 70.572 98.7947 70.316 98.368C70.1027 97.8987 69.996 97.344 69.996 96.704C69.996 95.7653 70.252 94.976 70.764 94.336C71.3187 93.6533 71.9587 93.312 72.684 93.312C73.1107 93.312 73.516 93.3973 73.9 93.568C74.284 93.696 74.7533 93.9307 75.308 94.272C78.8493 96.7467 82.0067 97.984 84.78 97.984C87.8947 97.984 90.348 96.5547 92.14 93.696C93.932 90.7947 94.8707 86.7413 94.956 81.536C93.9747 83.456 92.5027 84.992 90.54 86.144C88.5773 87.2533 86.38 87.808 83.948 87.808C81.26 87.808 78.8707 87.2107 76.78 86.016C74.6893 84.7787 73.0467 83.072 71.852 80.896C70.7 78.6773 70.124 76.16 70.124 73.344C70.124 70.4427 70.764 67.8613 72.044 65.6C73.3667 63.296 75.1587 61.504 77.42 60.224C79.724 58.944 82.3267 58.304 85.228 58.304ZM85.676 81.28C88.0653 81.28 89.9853 80.5333 91.436 79.04C92.9293 77.504 93.676 75.52 93.676 73.088C93.676 70.6133 92.9293 68.6293 91.436 67.136C89.9853 65.6 88.0653 64.832 85.676 64.832C83.3293 64.832 81.452 65.6 80.044 67.136C78.636 68.6293 77.932 70.6133 77.932 73.088C77.932 75.5627 78.636 77.5467 80.044 79.04C81.452 80.5333 83.3293 81.28 85.676 81.28Z" fill="black"/>
<defs>
<filter id="filter0_d" x="0" y="0" width="136" height="136" filterUnits="userSpaceOnUse" color-interpolation-filters="sRGB">
<feFlood flood-opacity="0" result="BackgroundImageFix"/>
<feColorMatrix in="SourceAlpha" type="matrix" values="0 0 0 0 0 0 0 0 0 0 0 0 0 0 0 0 0 0 127 0"/>
<feOffset/>
<feGaussianBlur stdDeviation="2"/>
<feColorMatrix type="matrix" values="0 0 0 0 0 0 0 0 0 0 0 0 0 0 0 0 0 0 0.25 0"/>
<feBlend mode="normal" in2="BackgroundImageFix" result="effect1_dropShadow"/>
<feBlend mode="normal" in="SourceGraphic" in2="effect1_dropShadow" result="shape"/>
</filter>
</defs>
</svg>

<svg width="136" height="136" fill="none" xmlns="http://www.w3.org/2000/svg"><g filter="url(#a)"><rect x="4" y="4" width="128" height="128" rx="15" fill="#fff"/></g><path d="M4 19c0-8.284 6.716-15 15-15h98c8.284 0 15 6.716 15 15v21H4V19z" fill="#F44343"/><path d="M50.68 28h3.075v-6.009h5.917v-2.535h-5.916V15.99h6.555v-2.536h-9.63V28zm11.7 0h9.829v-2.535h-6.754V21.99h6.221v-2.535h-6.221V15.99h6.726v-2.536h-9.802V28zm12.245 0h6.215c3.267 0 5.007-1.704 5.007-4.02 0-2.152-1.541-3.452-3.196-3.53v-.142c1.513-.34 2.628-1.413 2.628-3.125 0-2.18-1.62-3.729-4.83-3.729h-5.823V28zm3.076-2.514v-3.864h2.578c1.477 0 2.393.852 2.393 2.053 0 1.093-.745 1.81-2.464 1.81H77.7zm0-5.945v-3.6h2.337c1.363 0 2.137.702 2.137 1.754 0 1.15-.937 1.846-2.194 1.846H77.7z" fill="#fff"/><path d="M61.189 97.344c2.56 0 3.84 1.088 3.84 3.264 0 2.261-1.28 3.392-3.84 3.392H39.557c-2.603 0-3.904-1.131-3.904-3.392 0-2.176 1.301-3.264 3.904-3.264h6.656V68.16l-6.144 3.776c-.597.341-1.13.512-1.6.512-.896 0-1.664-.384-2.304-1.152-.597-.768-.896-1.621-.896-2.56 0-1.237.555-2.197 1.664-2.88l9.92-6.144c1.28-.768 2.496-1.152 3.648-1.152 1.195 0 2.155.363 2.88 1.088.725.725 1.088 1.728 1.088 3.008v34.688h6.72zm24.039-39.04c5.717 0 10.112 1.941 13.184 5.824 3.115 3.84 4.672 9.344 4.672 16.512 0 4.907-.725 9.173-2.176 12.8-1.45 3.584-3.541 6.336-6.272 8.256-2.688 1.92-5.867 2.88-9.536 2.88-2.432 0-4.885-.427-7.36-1.28-2.432-.896-4.501-2.091-6.208-3.584-.555-.47-.96-.917-1.216-1.344-.213-.47-.32-1.024-.32-1.664 0-.939.256-1.728.768-2.368.555-.683 1.195-1.024 1.92-1.024.427 0 .832.085 1.216.256.384.128.853.363 1.408.704 3.541 2.475 6.699 3.712 9.472 3.712 3.115 0 5.568-1.43 7.36-4.288 1.792-2.901 2.73-6.955 2.816-12.16-.981 1.92-2.453 3.456-4.416 4.608-1.963 1.11-4.16 1.664-6.592 1.664-2.688 0-5.077-.597-7.168-1.792-2.09-1.237-3.733-2.944-4.928-5.12-1.152-2.219-1.728-4.736-1.728-7.552 0-2.901.64-5.483 1.92-7.744 1.323-2.304 3.115-4.096 5.376-5.376 2.304-1.28 4.907-1.92 7.808-1.92zm.448 22.976c2.39 0 4.31-.747 5.76-2.24 1.493-1.536 2.24-3.52 2.24-5.952 0-2.475-.747-4.459-2.24-5.952-1.45-1.536-3.37-2.304-5.76-2.304-2.347 0-4.224.768-5.632 2.304-1.408 1.493-2.112 3.477-2.112 5.952s.704 4.459 2.112 5.952c1.408 1.493 3.285 2.24 5.632 2.24z" fill="#000"/><defs><filter id="a" x="0" y="0" width="136" height="136" filterUnits="userSpaceOnUse" color-interpolation-filters="sRGB"><feFlood flood-opacity="0" result="BackgroundImageFix"/><feColorMatrix in="SourceAlpha" values="0 0 0 0 0 0 0 0 0 0 0 0 0 0 0 0 0 0 127 0"/><feOffset/><feGaussianBlur stdDeviation="2"/><feColorMatrix values="0 0 0 0 0 0 0 0 0 0 0 0 0 0 0 0 0 0 0.25 0"/><feBlend in2="BackgroundImageFix" result="effect1_dropShadow"/><feBlend in="SourceGraphic" in2="effect1_dropShadow" result="shape"/></filter></defs></svg>
